X: 30268
T: Old Legacy, The
R: jig
M: 6/8
K: Gmajor
|:D|GAF GBc|ded dBA|G2 A BAB|E2 F G2 D|
GAF GBc|ded dBA|G2 A BAB|E2 F G2:|
|:D|GBd g3|fed edB|GBd g2 g|fed e3|
g2 f gdB|e2 d edB|G2 A BAB|E2 F G2:|

